OFDR/img/documents/engineer.svg

<svg width="62" height="70" viewBox="0 0 62 70" fill="none" xmlns="http://www.w3.org/2000/svg">
<g id="engineer">
<path id="Shape" fill-rule="evenodd" clip-rule="evenodd" d="M61.111 33.2102L58.3428 32.0122V30.1075C58.3817 18.4167 51.0518 7.98594 40.0856 4.12798V1.4435C40.0856 0.646662 39.443 0 38.6517 0H23.3055C22.5142 0 21.8716 0.646662 21.8716 1.4435V4.14216C10.9054 8.00013 3.57552 18.4309 3.61441 30.1217V32.0411L0.874924 33.2102C0.344137 33.4357 0 33.9596 0 34.5382V42.1157C0 42.9121 0.642583 43.5587 1.43439 43.5587H3.29895V46.4457C3.29895 47.2421 3.94104 47.8887 4.73285 47.8887H9.88178C10.3708 49.6957 11.0892 51.4336 12.0185 53.0557L8.37593 56.7219C7.81939 57.2844 7.81939 58.1938 8.37593 58.7568L14.4712 64.8908C15.0302 65.4509 15.9338 65.4509 16.4933 64.8908L20.1359 61.2251C21.7438 62.1603 23.465 62.8818 25.2561 63.3754V68.557C25.2561 69.3533 25.8987 70 26.6905 70H35.2954C36.0872 70 36.7298 69.3533 36.7298 68.557V63.3754C38.5253 62.8833 40.2518 62.1618 41.8641 61.2251L45.5072 64.8908C46.0662 65.4509 46.9698 65.4509 47.5293 64.8908L53.6245 58.7568C54.1811 58.1938 54.1811 57.2844 53.6245 56.7219L49.9815 53.0557C50.9108 51.4336 51.6297 49.6957 52.1187 47.8887H57.2672C58.059 47.8887 58.7015 47.2421 58.7015 46.4457V43.5587H60.5661C61.3579 43.5587 62 42.9121 62 42.1157V34.5382C61.9971 33.9552 61.6461 33.4313 61.111 33.2102ZM24.7112 2.90118H37.2173V27.0185H24.7399L24.7112 2.90118ZM51.0717 45.0022H55.8473L55.8332 43.5587H42.7104C42.0561 48.9913 37.8011 53.2724 32.4028 53.9318C25.923 54.7242 20.0328 50.0797 19.2469 43.5587H6.13856V45.0022H10.9142C11.6025 44.9861 12.2032 45.4655 12.3486 46.142C12.8487 48.395 13.7523 50.537 15.0161 52.4638C15.3846 53.0342 15.3058 53.786 14.8295 54.2678L11.4017 57.7173L15.4604 61.8023L18.8881 58.3527C19.3674 57.8734 20.1145 57.7941 20.6812 58.1649C22.6071 59.4264 24.7458 60.3211 26.9914 60.8063C27.6641 60.9521 28.1405 61.5567 28.1244 62.2493V67.1565H33.861V62.2929C33.8454 61.6002 34.3213 60.9951 34.994 60.8494C37.2402 60.3632 39.3784 59.468 41.3047 58.2084C41.8714 57.8372 42.6185 57.9169 43.0973 58.3958L46.525 61.8453L50.627 57.7462L47.1992 54.2967C46.7234 53.8148 46.6441 53.063 47.013 52.4927C48.2652 50.5541 49.1542 48.4023 49.6373 46.142C49.7822 45.4655 50.3834 44.9861 51.0717 45.0022ZM22.1725 43.5587H39.8275C39.0386 48.4689 34.4433 51.8059 29.5646 51.012C25.7582 50.3927 22.7738 47.3893 22.1584 43.5587H22.1725ZM2.8542 40.6722H59.1458V35.5195L56.3781 34.3215C55.8473 34.0965 55.5032 33.5726 55.5032 32.994V30.107C55.5435 20.0143 49.438 10.9243 40.1143 7.20183V28.462C40.1143 29.2583 39.4717 29.905 38.6799 29.905H23.3055C22.5137 29.905 21.8716 29.2583 21.8716 28.462V7.20183C12.5634 10.9258 6.4652 19.9981 6.49679 30.0781V32.9646C6.49679 33.5438 6.15266 34.0677 5.62187 34.2927L2.8542 35.4906V40.6722Z" fill="#86ADEF"/>
</g>
</svg>

<svg width="62" height="70" fill="none" xmlns="http://www.w3.org/2000/svg"><path fill-rule="evenodd" clip-rule="evenodd" d="M61.111 33.21l-2.768-1.198v-1.904c.039-11.691-7.291-22.122-18.257-25.98V1.444A1.44 1.44 0 0038.652 0H23.305a1.44 1.44 0 00-1.433 1.444v2.698C10.905 8 3.576 18.431 3.614 30.122v1.92L.874 33.21c-.53.226-.874.75-.874 1.328v7.578a1.44 1.44 0 001.434 1.443H3.3v2.887a1.44 1.44 0 001.434 1.443h5.149a21.913 21.913 0 002.136 5.167l-3.642 3.666a1.449 1.449 0 000 2.035l6.095 6.134c.56.56 1.463.56 2.022 0l3.643-3.666a21.592 21.592 0 005.12 2.15v5.182A1.44 1.44 0 0026.69 70h8.605a1.44 1.44 0 001.435-1.443v-5.182a21.569 21.569 0 005.134-2.15l3.643 3.666c.56.56 1.463.56 2.022 0l6.095-6.134a1.449 1.449 0 000-2.035l-3.643-3.666a21.913 21.913 0 002.138-5.167h5.148a1.44 1.44 0 001.434-1.443v-2.887h1.865A1.44 1.44 0 0062 42.116v-7.578a1.443 1.443 0 00-.889-1.328zm-36.4-30.309h12.506v24.117H24.74l-.03-24.117zm26.36 42.101h4.776l-.014-1.443H42.71c-.654 5.432-4.909 9.713-10.307 10.373-6.48.792-12.37-3.852-13.156-10.373H6.139v1.443h4.775a1.436 1.436 0 011.435 1.14 19.054 19.054 0 002.667 6.322 1.45 1.45 0 01-.187 1.804l-3.427 3.45 4.058 4.084 3.428-3.45a1.428 1.428 0 011.793-.187 18.737 18.737 0 006.31 2.641 1.44 1.44 0 011.133 1.443v4.907h5.737v-4.863a1.442 1.442 0 011.133-1.444 18.796 18.796 0 006.31-2.64 1.427 1.427 0 011.793.187l3.428 3.45 4.102-4.1-3.428-3.45a1.45 1.45 0 01-.186-1.803 19.036 19.036 0 002.624-6.351 1.436 1.436 0 011.435-1.14zM22.174 43.56h17.655c-.79 4.91-5.385 8.247-10.263 7.453-3.807-.62-6.791-3.623-7.407-7.453h.014zm-19.32-2.888h56.292V35.52l-2.768-1.199a1.44 1.44 0 01-.875-1.327v-2.887c.04-10.093-6.065-19.183-15.389-22.905v21.26a1.44 1.44 0 01-1.434 1.443H23.305a1.439 1.439 0 01-1.433-1.443V7.202C12.563 10.926 6.465 19.998 6.497 30.078v2.887a1.44 1.44 0 01-.875 1.328L2.854 35.49v5.181z" fill="#86ADEF"/></svg>
